icons/calm_fill.svg

<svg width="48" height="48" viewBox="0 0 48 48" fill="none" xmlns="http://www.w3.org/2000/svg">
<path d="M13.7427 24.3501C13.6236 25.0878 14.1241 25.7953 14.8071 26.2328C15.5209 26.6899 16.5385 26.9399 17.7369 26.763C18.9828 26.579 19.8683 25.8878 20.3903 25.0976C20.8947 24.3341 21.1023 23.4046 20.8706 22.7158C20.8161 22.554 20.6829 22.4312 20.5172 22.39C20.3515 22.3488 20.1763 22.3951 20.0524 22.5126C18.2566 24.2174 16.2286 24.6362 14.4103 23.9611C14.27 23.909 14.1138 23.9225 13.9845 23.9978C13.8553 24.0731 13.7665 24.2024 13.7427 24.3501Z" fill="black"/>
<path d="M33.8185 24.3501C33.9376 25.0878 33.4371 25.7953 32.7541 26.2328C32.0403 26.6899 31.0227 26.9399 29.8243 26.763C28.5784 26.579 27.6929 25.8878 27.1708 25.0976C26.6665 24.3341 26.4589 23.4046 26.6906 22.7158C26.745 22.554 26.8783 22.4312 27.044 22.39C27.2097 22.3488 27.3849 22.3951 27.5087 22.5126C29.3046 24.2174 31.3326 24.6362 33.1509 23.9611C33.2911 23.909 33.4474 23.9225 33.5766 23.9978C33.7059 24.0731 33.7947 24.2024 33.8185 24.3501Z" fill="black"/>
<path d="M31.0869 32.4337C30.9197 32.8276 30.6485 33.2071 30.3149 33.5543C29.0224 34.8995 26.7572 36 24.0132 36C21.2759 36 18.9764 34.9037 17.703 33.5454C17.3774 33.1982 17.1161 32.8245 16.9496 32.4429C16.7899 32.077 16.6786 31.6112 16.7985 31.1374C16.9353 30.5965 17.3335 30.2098 17.8505 30.0547C18.3043 29.9186 18.7916 29.9729 19.2387 30.0993C21.5916 30.7128 22.7389 30.9867 23.8768 30.9918C25.0121 30.997 26.1852 30.7337 28.5811 30.0977L28.5945 30.0941C29.0876 29.9705 29.5915 29.9259 30.0487 30.0445C30.5448 30.1732 30.9954 30.5062 31.1841 31.0603C31.3536 31.5581 31.2482 32.054 31.0869 32.4337Z" fill="black"/>
<path fill-rule="evenodd" clip-rule="evenodd" d="M24 42C33.9411 42 42 33.9411 42 24C42 14.0589 33.9411 6 24 6C14.0589 6 6 14.0589 6 24C6 33.9411 14.0589 42 24 42ZM24 40C32.8366 40 40 32.8366 40 24C40 15.1634 32.8366 8 24 8C15.1634 8 8 15.1634 8 24C8 32.8366 15.1634 40 24 40Z" fill="black"/>
</svg>

<svg
  xmlns="http://www.w3.org/2000/svg"
  width="24"
  height="24"
  viewBox="0 0 24 24"
  fill="none"
  stroke="currentColor"
  stroke-width="2"
  stroke-linecap="round"
  stroke-linejoin="round"
>
  <path d="M13.743 24.35c-.12.738.381 1.445 1.064 1.883.714.457 1.731.707 2.93.53a3.8 3.8 0 0 0 2.653-1.665c.505-.764.712-1.693.48-2.382a.5.5 0 0 0-.818-.203c-1.795 1.704-3.823 2.123-5.642 1.448a.5.5 0 0 0-.667.39" />
  <path d="M33.819 24.35c.119.738-.382 1.445-1.065 1.883-.714.457-1.731.707-2.93.53a3.8 3.8 0 0 1-2.653-1.665c-.505-.764-.712-1.693-.48-2.382a.5.5 0 0 1 .818-.203c1.796 1.704 3.824 2.123 5.642 1.448a.5.5 0 0 1 .667.39" />
  <path d="M31.087 32.434c-.167.394-.439.773-.772 1.12C29.022 34.9 26.757 36 24.013 36c-2.737 0-5.037-1.096-6.31-2.455a4 4 0 0 1-.753-1.102c-.16-.366-.271-.832-.151-1.306.136-.54.535-.927 1.052-1.082.453-.136.94-.082 1.388.044 2.353.614 3.5.888 4.638.893 1.135.005 2.308-.258 4.704-.894l.014-.004c.493-.123.997-.168 1.454-.05.496.13.946.462 1.135 1.016.17.498.064.994-.097 1.374" />
  <path
    fill-rule="evenodd"
    d="M24 42c9.941 0 18-8.059 18-18S33.941 6 24 6 6 14.059 6 24s8.059 18 18 18m0-2c8.837 0 16-7.163 16-16S32.837 8 24 8 8 15.163 8 24s7.163 16 16 16"
    clip-rule="evenodd"
  />
</svg>
